X: 1
T: Squirrel Heads and Gravy
O: Piney Creek Weasels
R: march, reel
Z: 2020 John Chambers <jc:trillian.mit.edu>
S: http://sbobo.net/ftotd/SquirrelHeadsAndGravey.jpg
S: https://www.facebook.com/groups/Fiddletuneoftheday/
S: https://www.facebook.com/groups/Fiddletuneoftheday/photos/
M: C|
L: 1/8
K: A
|:\
A2AA FEFG | A2AA | FEFG | A2AA ABc2 | B3c B2AB |
c2cc B2B2 | ABA2 F4 | EFAB cBAF | A3B [1 A4 :|[2 A2c2 ||
|:\
e6 c2 | e2c2 B2A2 | e2ee e2c2 | e2c2 B4 |
e6 ef | a2e2 faf2 | e2f2 a2f2 | ecB2 [1 A2 c2 :|[2 A4 |]
